X: 1
T: Saratoga, The
M: 4/4
L: 1/8
R: hornpipe
K: F Major
|: AB |\ 
c=BcA d_Bfd | cAFA cAdc | BAGB AGFA | Gc=Bd c2 A_B |
c=BcA d_Bfd | cAFA cdef | defg efga | f2 a2 f2 :|
|: fg |\
aAgA fAeA | fAeA dAfA | eA^ce agfe | fgef defg |
aAgA fA e2 | fAeA dA f2 | efga bgeg | f2 a2 f2 :|



